src/actions/16/dialog-cancel.svg

<svg xmlns="http://www.w3.org/2000/svg" viewBox="0 0 16 16">
  <defs id="defs3051">
    <style type="text/css" id="current-color-scheme">
      .ColorScheme-Text {
        color:#2e3440;
      }
      </style>
  </defs>
 <path style="fill:currentColor;fill-opacity:1;stroke:none" 
       d="M 8 2 C 4.6862928 2 2 4.6862997 2 8 C 2 11.3137 4.6862928 14 8 14 C 11.313707 14 14 11.3137 14 8 C 14 4.6862997 11.313707 2 8 2 z M 8 3 C 10.761424 3 13 5.2385763 13 8 C 13 9.199635 12.548037 10.263384 11.84375 11.125 L 4.875 4.15625 C 5.7366165 3.4519627 6.8003651 3 8 3 z M 4.15625 4.875 L 11.125 11.84375 C 10.263384 12.548037 9.199635 13 8 13 C 5.2385763 13 3 10.761424 3 8 C 3 6.8003651 3.4519627 5.7366165 4.15625 4.875 z "
     class="ColorScheme-Text"
     />
</svg>

<svg viewBox="0 0 16 16" xmlns="http://www.w3.org/2000/svg">
 <defs>
  <style type="text/css">.ColorScheme-Text {
        color:#2e3440;
      }</style>
 </defs>
 <path class="ColorScheme-Text" d="m8 2c-3.3137 0-6 2.6863-6 6 0 3.3137 2.6863 6 6 6 3.3137 0 6-2.6863 6-6 0-3.3137-2.6863-6-6-6zm0 1c2.7614 0 5 2.2386 5 5 0 1.1996-0.45196 2.2634-1.1562 3.125l-6.9688-6.9688c0.86162-0.70429 1.9254-1.1562 3.125-1.1562zm-3.8438 1.875 6.9688 6.9688c-0.86162 0.70429-1.9254 1.1562-3.125 1.1562-2.7614 0-5-2.2386-5-5 0-1.1996 0.45196-2.2634 1.1562-3.125z" fill="currentColor"/>
</svg>
